X: 16
T: Irishman in Edinburgh (The)
S: Fitzmaurice Collection
N: 092215
Z: BB
L: 1/16
M: 2/4
R: hornpipe
Q: 1/4=80
K: D
D2D2 FAFA | D2D2 GBGB | D2D2 FAFA | Bdcd BAGF |
G4 BGBG | F4 AFAF | dcdB AGFE | D2 DD D4 :|
d2>c2 defd | ceAA A4 | e2>f2 gfed | fadd d4 |
A2c2 BA^GB | A2c2 BA^GB | Acef edcB | AdcB AGFE :|
%%%%%
